X: 39
T: No_136_Dream_Song.krn
%%abc-version 2.0
%%abcx-abcm2ps-target-version 5.9.1 (29 Sep 2008)
%%abc-creator hum2abc beta
%%abcx-conversion-date 2020/08/10 18:54:57
%%gracespace 0 6 6
%%humdrum-veritas 2859766990
%%humdrum-veritas-data 2881074439
%%linebreak <none>
%%barnumbers 0
L: 1/8
M: 3/4
%%staves {1 2}
V: 1 clef=treble
V: 2 clef=bass
K: C
[V:1] [K:clef=treble][M:3/4]E>CG4 | 
[V:2] [K:clef=bass][M:3/4](3!accent!G,, z G,, (3!accent!G,, z G,, (3!accent!G,, z G,, | 
[V:1] EC2<E2G ||  
[V:2] z6 ||  
[V:1] [M:2/4]EG, C3/C/ | 
[V:2] [M:2/4]z4 | 
[V:1] CC !fermata!C3/C/ ||  
[V:2] z4 ||  
[V:1] [M:3/4]CG2<E2G ||  
[V:2] [M:3/4]z6 ||  
[V:1] [M:2/4]A,G,C2 | 
[V:2] [M:2/4]z4 | 
[V:1] GC CE/C/ | 
[V:2] z4 | 
[V:1] G,G,G,2[K:clef=bass] ||  
[V:2] z4 ||  
[V:1] [M:3/4]CA,2<C2E/C/ ||  
[V:2] [M:3/4]z6 ||  
[V:1] [M:2/4]G,G,G,2 | 
[V:2] [M:2/4]z4 | 
[V:1] G,G, G,E, | 
[V:2] z4 | 
[V:1] G,E, E,E, | 
[V:2] z4 | 
[V:1] C,C,C,2 | 
[V:2] z4 | 
[V:1] C,4[K:clef=treble] ||  
[V:2] z4 ||  
[V:1] [M:3/4]CC2<E2G ||  
[V:2] [M:3/4]z6 ||  
[V:1] [M:2/4]A,G,C2 | 
[V:2] [M:2/4]z4 | 
[V:1] GC CE/C/ | 
[V:2] z4 | 
[V:1] G,G,G,2 ||  
[V:2] z4 ||  
[V:1] [M:3/4]CA,2<C2E/C/[K:clef=bass] ||  
[V:2] [M:3/4]z6 ||  
[V:1] [M:2/4]G,G,G,2 | 
[V:2] [M:2/4]z4 | 
[V:1] G,G, G,E, | 
[V:2] z4 | 
[V:1] G,E, E,E, | 
[V:2] z4 | 
[V:1] C,C,C,2 | 
[V:2] z4 | 
[V:1] C,4 |]  
[V:2] z4 |]  


